X: 80
T:Slow March. JMP.080
M:C
L:1/8
Q:110
S:John Miller MS. Perth, 1799.(for the fife)
R:March
O:Scotland
A:Perth
N:See number 78 - almost identical
N:1 - shown as croche
H:1799
Z:vmp.C. Graebe
K:G major
G2 DG B2 GB | d2 Bd g4 | e2 ge d2 ge | dcBA B2 G2 |!
e2 ge d2 ge | dcBA B2 G2 | B>cdd {e}d2 cB | A2 de d4 |!
B>c dd {e}d2 cB | B2 A>A A2 g2 | gfed fedc | d2 d>d d2 :|!
|:A>Bcc c2 BA | B>cdd d2 cB | A>Bcc c2 BA | B2 A>A A4 |!
((3ded) ((3BdB) G2G2 | dfed e4 | ((3efe) ((3cec) A2A2 |!
egfe f4 |  g2 d>d d2 g2 | d2 B>B B2 ((3efg) | ggfe dcBA |\
 G2 G>G"1"G4 :|]
